X: 122
T: Pikes Peak
B: canberra pickers and fiddlers
B: old time tunes update
B: tunes
M:4/4
R: reel
Q: 1/4=100
K:Am
V:1 
|:"Am"ADGD E2AB|cdcB AGEG|ADGD E2AB|cEdE e2fg|
"G"ageg fdec|"F"decB AGEG|"C/E"ADGD E2"F"AB|"G"cdcd "Am"A2EG:|
|:"C"cGdG e2cd|efed cAGd|cGdG e2cd|efed g2eg|
"Am"c'geb ge"F"ag|cdef edc2|"F/G"fdAe cGFG|"G"cdce g2ed:|
% abcbook-tune_id 67a7d9eca10d950f2162318b
% abcbook-tune_composer_id 
% abcbook-link-0 https://www.youtube.com/watch?v=JcYeqpyNgGk
% abcbook-link-title-0 &quot;Pike&#39;s Peak&quot; ~ Asa Nelson @ Happy Valley Fiddlers Convention
% abcbook-boost 0
% abcbook-difficulty 0
% abcbook-tags old time tunes
% abcbook-tablature 
% abcbook-transpose 
% abcbook-tuning GDAE
% abcbook-lastupdated 1739273542469
% abcbook-src-url 
% abcbook-soundfonts 
% abcbook-repeats 1


